src/assets/imgs/profit-two-page/1.svg

<svg fill="none" height="113" viewBox="0 0 99 113" width="99" xmlns="http://www.w3.org/2000/svg"><g fill="#000"><path d="m49.2134.546875c-21.8257 0-39.59914 17.773425-39.59914 39.599225v45.0023h3.34144v-45.0023c0-19.9774 16.2804-36.25782 36.2577-36.25782 19.9774 0 36.2578 16.28042 36.2578 36.25782v45.0023h3.3415v-45.0023c0-21.8258-17.7735-39.599225-39.5993-39.599225z"/><path d="m27.7431 29.624v27.4422c0 7.3227 3.6969 13.7922 9.2422 17.6312v7.9626l-29.57496 8.6023c-4.40781 1.3508-7.3937384 5.4031-7.3937384 10.0247v11.588h3.3413984v-11.517c0-3.1996 2.06171-5.9012 5.04765-6.8254l31.99215-9.3133v-8.5312c.8531.3555 1.6352.7109 2.5594.9953.1422.0711.2844.0711.4266.1422.0711 0 .071 0 .1421.0711.1422 0 .2133.0711.3555.0711.0711 0 .1422.0711.2133.0711s.2133.0711.2844.0711.2132.0711.2843.0711.1422.071.2844.071c.0711 0 .2133.0711.2844.0711s.1422 0 .2133.0711c.1422 0 .2133.0711.3554.0711h.2133c.1422 0 .2133.0711.3555.0711h.2133c.1422 0 .2843 0 .3554.0711h.1422c.1422 0 .2844 0 .4266.0711h.1422.4265.1422.4266.1422.5687.5688.1422.4265.1422.4266.1422c.1422 0 .2843 0 .4265-.0711h.1422c.1422 0 .2844 0 .3555-.0711h.2133c.1422 0 .2132 0 .3554-.0711h.2133c.1422 0 .2133-.0711.3555-.0711.0711 0 .1422 0 .2132-.0711.0711 0 .2133-.0711.2844-.0711s.1422-.071.2844-.071c.0711 0 .2133-.0711.2844-.0711s.2133-.0711.2844-.0711c.071 0 .1422-.0711.2132-.0711.1422 0 .2133-.0711.3555-.0711.0711 0 .0711 0 .1422-.0711.1422-.0711.2844-.0711.4266-.1422.8531-.2844 1.7062-.5688 2.5593-.9953v7.3226h3.3414v-9.1711c5.6164-3.9101 9.2422-10.3796 9.2422-17.6312v-8.318zm39.6703 27.4422c0 8.1047-5.332 15.0008-12.7258 17.3469h-.071c-.2133.0711-.4977.1422-.711.2133h-.0711c-.2844.0711-.4976.1421-.782.2132-.0711 0-.1422 0-.2133 0-.2133.0711-.4265.0711-.6398.1422-.0711 0-.1422 0-.2133 0-.2844.0711-.4977.0711-.782.0711-.0711 0-.0711 0-.1422 0-.2133 0-.4266.0711-.711.0711-.0711 0-.1421 0-.2132 0-.2844 0-.5688 0-.8532 0s-.5687 0-.8531 0c-.0711 0-.1422 0-.2133 0-.2133 0-.4265 0-.7109-.0711-.0711 0-.0711 0-.1422 0-.2844 0-.4977-.0711-.782-.0711-.0711 0-.1422 0-.2133 0-.2133 0-.4266-.0711-.6399-.1422-.0711 0-.1421 0-.2132 0-.2844-.0711-.5688-.1421-.7821-.2132h-.0711c-.2843-.0711-.4976-.1422-.7109-.2133h-.0711c-7.3937-2.3461-12.7258-9.2422-12.7258-17.3469v-22.3945l36.4 16.1383z"/><path d="m30.0747 23.3931-1.3569 3.0534 39.6938 17.6404 1.357-3.0534z"/><path d="m80.7794 43.2031h-3.3414v68.2499h3.3414z"/><path d="m26.8902 69.8633h-3.3414v8.1758h3.3414z"/><path d="m69.7599 79.1055h-3.3414v32.3475h3.3414z"/><path d="m91.017 91.2627-4.9055-1.4219-.9242 3.1992 4.8343 1.4219c3.0571.9242 5.0477 3.6969 5.0477 6.8251v11.588h3.3414v-11.517c.0711-4.6922-2.9148-8.6734-7.3937-10.0953z"/></g></svg>

<svg width="99" height="113" viewBox="0 0 99 113" fill="none" xmlns="http://www.w3.org/2000/svg">
<path d="M49.2134 0.546875C27.3877 0.546875 9.61426 18.3203 9.61426 40.1461V85.1484H12.9557V40.1461C12.9557 20.1687 29.2361 3.88828 49.2134 3.88828C69.1908 3.88828 85.4712 20.1687 85.4712 40.1461V85.1484H88.8127V40.1461C88.8127 18.3203 71.0392 0.546875 49.2134 0.546875Z" fill="black"/>
<path d="M27.7431 29.624V57.0662C27.7431 64.3889 31.44 70.8584 36.9853 74.6974V82.66L7.41034 91.2623C3.00253 92.6131 0.0166016 96.6654 0.0166016 101.287V112.875H3.358V101.358C3.358 98.1584 5.41971 95.4568 8.40565 94.5326L40.3978 85.2193V76.6881C41.2509 77.0436 42.033 77.399 42.9572 77.6834C43.0994 77.7545 43.2416 77.7545 43.3838 77.8256C43.4549 77.8256 43.4548 77.8256 43.5259 77.8967C43.6681 77.8967 43.7392 77.9678 43.8814 77.9678C43.9525 77.9678 44.0236 78.0389 44.0947 78.0389C44.1658 78.0389 44.308 78.11 44.3791 78.11C44.4502 78.11 44.5923 78.1811 44.6634 78.1811C44.7345 78.1811 44.8056 78.2521 44.9478 78.2521C45.0189 78.2521 45.1611 78.3232 45.2322 78.3232C45.3033 78.3232 45.3744 78.3232 45.4455 78.3943C45.5877 78.3943 45.6588 78.4654 45.8009 78.4654C45.872 78.4654 45.9431 78.4654 46.0142 78.4654C46.1564 78.4654 46.2275 78.5365 46.3697 78.5365C46.4408 78.5365 46.5119 78.5365 46.583 78.5365C46.7252 78.5365 46.8673 78.5365 46.9384 78.6076C47.0095 78.6076 47.0806 78.6076 47.0806 78.6076C47.2228 78.6076 47.365 78.6076 47.5072 78.6787C47.5783 78.6787 47.6494 78.6787 47.6494 78.6787C47.7916 78.6787 47.9337 78.6787 48.0759 78.6787C48.147 78.6787 48.2181 78.6787 48.2181 78.6787C48.3603 78.6787 48.5025 78.6787 48.6447 78.6787C48.7158 78.6787 48.7158 78.6787 48.7869 78.6787C49.0002 78.6787 49.1423 78.6787 49.3556 78.6787C49.5689 78.6787 49.7111 78.6787 49.9244 78.6787C49.9955 78.6787 49.9955 78.6787 50.0666 78.6787C50.2087 78.6787 50.3509 78.6787 50.4931 78.6787C50.5642 78.6787 50.6353 78.6787 50.6353 78.6787C50.7775 78.6787 50.9197 78.6787 51.0619 78.6787C51.133 78.6787 51.2041 78.6787 51.2041 78.6787C51.3463 78.6787 51.4884 78.6787 51.6306 78.6076C51.7017 78.6076 51.7728 78.6076 51.7728 78.6076C51.915 78.6076 52.0572 78.6076 52.1283 78.5365C52.1994 78.5365 52.2705 78.5365 52.3416 78.5365C52.4838 78.5365 52.5548 78.5365 52.697 78.4654C52.7681 78.4654 52.8392 78.4654 52.9103 78.4654C53.0525 78.4654 53.1236 78.3943 53.2658 78.3943C53.3369 78.3943 53.408 78.3943 53.479 78.3232C53.5501 78.3232 53.6923 78.2521 53.7634 78.2521C53.8345 78.2521 53.9056 78.1811 54.0478 78.1811C54.1189 78.1811 54.2611 78.11 54.3322 78.11C54.4033 78.11 54.5455 78.0389 54.6166 78.0389C54.6876 78.0389 54.7588 77.9678 54.8298 77.9678C54.972 77.9678 55.0431 77.8967 55.1853 77.8967C55.2564 77.8967 55.2564 77.8967 55.3275 77.8256C55.4697 77.7545 55.6119 77.7545 55.7541 77.6834C56.6072 77.399 57.4603 77.1146 58.3134 76.6881V84.0107H61.6548V74.8396C67.2712 70.9295 70.897 64.46 70.897 57.2084V48.8904L27.7431 29.624ZM67.4134 57.0662C67.4134 65.1709 62.0814 72.067 54.6876 74.4131H54.6166C54.4033 74.4842 54.1189 74.5553 53.9056 74.6264H53.8345C53.5501 74.6975 53.3369 74.7685 53.0525 74.8396C52.9814 74.8396 52.9103 74.8396 52.8392 74.8396C52.6259 74.9107 52.4127 74.9107 52.1994 74.9818C52.1283 74.9818 52.0572 74.9818 51.9861 74.9818C51.7017 75.0529 51.4884 75.0529 51.2041 75.0529C51.133 75.0529 51.133 75.0529 51.0619 75.0529C50.8486 75.0529 50.6353 75.124 50.3509 75.124C50.2798 75.124 50.2088 75.124 50.1377 75.124C49.8533 75.124 49.5689 75.124 49.2845 75.124C49.0001 75.124 48.7158 75.124 48.4314 75.124C48.3603 75.124 48.2892 75.124 48.2181 75.124C48.0048 75.124 47.7916 75.124 47.5072 75.0529C47.4361 75.0529 47.4361 75.0529 47.365 75.0529C47.0806 75.0529 46.8673 74.9818 46.583 74.9818C46.5119 74.9818 46.4408 74.9818 46.3697 74.9818C46.1564 74.9818 45.9431 74.9107 45.7298 74.8396C45.6587 74.8396 45.5877 74.8396 45.5166 74.8396C45.2322 74.7685 44.9478 74.6975 44.7345 74.6264H44.6634C44.3791 74.5553 44.1658 74.4842 43.9525 74.4131H43.8814C36.4877 72.067 31.1556 65.1709 31.1556 57.0662V34.6717L67.5556 50.81L67.4134 57.0662Z" fill="black"/>
<path d="M30.0747 23.3931L28.7178 26.4465L68.4116 44.0869L69.7686 41.0335L30.0747 23.3931Z" fill="black"/>
<path d="M80.7794 43.2031H77.438V111.453H80.7794V43.2031Z" fill="black"/>
<path d="M26.8902 69.8633H23.5488V78.0391H26.8902V69.8633Z" fill="black"/>
<path d="M69.7599 79.1055H66.4185V111.453H69.7599V79.1055Z" fill="black"/>
<path d="M91.017 91.2627L86.1115 89.8408L85.1873 93.04L90.0216 94.4619C93.0787 95.3861 95.0693 98.1588 95.0693 101.287V112.875H98.4107V101.358C98.4818 96.6658 95.4959 92.6846 91.017 91.2627Z" fill="black"/>
</svg>
